web/ui/src/assets/svgs/sort/move.svg

<svg height="24" viewBox="0 0 24 24" width="24" xmlns="http://www.w3.org/2000/svg"><path d="m18.25 5.4375v-2.1875c0-.68945312-.5605469-1.25-1.25-1.25h-13.75c-.68945312 0-1.25.56054688-1.25 1.25v13.75c0 .6894531.56054688 1.25 1.25 1.25h2.1875c.171875 0 .3125.140625.3125.3125v2.1875c0 .6894531.56054688 1.25 1.25 1.25h2.421875c.04296875 0 .078125-.0351562.078125-.078125v-1.09375c0-.0429688-.03515625-.078125-.078125-.078125h-2.421875v-2.1875c0-.171875.140625-.3125.3125-.3125h9.6875c.6894531 0 1.25-.5605469 1.25-1.25v-9.6875c0-.171875.140625-.3125.3125-.3125h2.1875v2.421875c0 .04296875.0351562.078125.078125.078125h1.09375c.0429688 0 .078125-.03515625.078125-.078125v-2.421875c0-.68945312-.5605469-1.25-1.25-1.25h-2.1875c-.171875 0-.3125-.140625-.3125-.3125zm-1.5625 11.5625h-13.125c-.171875 0-.3125-.140625-.3125-.3125v-13.125c0-.171875.140625-.3125.3125-.3125h13.125c.171875 0 .3125.140625.3125.3125v13.125c0 .171875-.140625.3125-.3125.3125zm4.0625 5h-2.421875c-.0429688 0-.078125-.0351562-.078125-.078125v-1.09375c0-.0429688.0351562-.078125.078125-.078125h2.109375c.171875 0 .3125-.140625.3125-.3125v-2.109375c0-.0429688.0351562-.078125.078125-.078125h1.09375c.0429688 0 .078125.0351562.078125.078125v2.421875c0 .6894531-.5605469 1.25-1.25 1.25zm-4.453125 0h-4.84375c-.0429688 0-.078125-.0351562-.078125-.078125v-1.09375c0-.0429688.0351562-.078125.078125-.078125h4.84375c.0429688 0 .078125.0351562.078125.078125v1.09375c0 .0429688-.0351562.078125-.078125.078125zm5.625-5.625h-1.09375c-.0429688 0-.078125-.0351562-.078125-.078125v-4.84375c0-.0429688.0351562-.078125.078125-.078125h1.09375c.0429688 0 .078125.0351562.078125.078125v4.84375c0 .0429688-.0351562.078125-.078125.078125z" fill="#6b7b8d" fill-rule="evenodd"/></svg>

<?xml version="1.0" encoding="UTF-8"?>
<svg width="24px" height="24px" viewBox="0 0 24 24" version="1.1" xmlns="http://www.w3.org/2000/svg" xmlns:xlink="http://www.w3.org/1999/xlink">
    <title>粘贴,移动,重叠</title>
    <g id="页面-1" stroke="none" stroke-width="1" fill="none" fill-rule="evenodd">
        <g id="建木自动化-分组管理" transform="translate(-1716.000000, -370.000000)" fill="#6B7B8D">
            <g id="编组-3" transform="translate(1716.000000, 370.000000)">
                <path d="M18.25,5.4375 L18.25,3.25 C18.25,2.56054688 17.6894531,2 17,2 L3.25,2 C2.56054688,2 2,2.56054688 2,3.25 L2,17 C2,17.6894531 2.56054688,18.25 3.25,18.25 L5.4375,18.25 C5.609375,18.25 5.75,18.390625 5.75,18.5625 L5.75,20.75 C5.75,21.4394531 6.31054688,22 7,22 L9.421875,22 C9.46484375,22 9.5,21.9648438 9.5,21.921875 L9.5,20.828125 C9.5,20.7851562 9.46484375,20.75 9.421875,20.75 L7,20.75 L7,18.5625 C7,18.390625 7.140625,18.25 7.3125,18.25 L17,18.25 C17.6894531,18.25 18.25,17.6894531 18.25,17 L18.25,7.3125 C18.25,7.140625 18.390625,7 18.5625,7 L20.75,7 L20.75,9.421875 C20.75,9.46484375 20.7851562,9.5 20.828125,9.5 L21.921875,9.5 C21.9648438,9.5 22,9.46484375 22,9.421875 L22,7 C22,6.31054688 21.4394531,5.75 20.75,5.75 L18.5625,5.75 C18.390625,5.75 18.25,5.609375 18.25,5.4375 Z M16.6875,17 L3.5625,17 C3.390625,17 3.25,16.859375 3.25,16.6875 L3.25,3.5625 C3.25,3.390625 3.390625,3.25 3.5625,3.25 L16.6875,3.25 C16.859375,3.25 17,3.390625 17,3.5625 L17,16.6875 C17,16.859375 16.859375,17 16.6875,17 Z M20.75,22 L18.328125,22 C18.2851562,22 18.25,21.9648438 18.25,21.921875 L18.25,20.828125 C18.25,20.7851562 18.2851562,20.75 18.328125,20.75 L20.4375,20.75 C20.609375,20.75 20.75,20.609375 20.75,20.4375 L20.75,18.328125 C20.75,18.2851562 20.7851562,18.25 20.828125,18.25 L21.921875,18.25 C21.9648438,18.25 22,18.2851562 22,18.328125 L22,20.75 C22,21.4394531 21.4394531,22 20.75,22 Z M16.296875,22 L11.453125,22 C11.4101562,22 11.375,21.9648438 11.375,21.921875 L11.375,20.828125 C11.375,20.7851562 11.4101562,20.75 11.453125,20.75 L16.296875,20.75 C16.3398438,20.75 16.375,20.7851562 16.375,20.828125 L16.375,21.921875 C16.375,21.9648438 16.3398438,22 16.296875,22 Z M21.921875,16.375 L20.828125,16.375 C20.7851562,16.375 20.75,16.3398438 20.75,16.296875 L20.75,11.453125 C20.75,11.4101562 20.7851562,11.375 20.828125,11.375 L21.921875,11.375 C21.9648438,11.375 22,11.4101562 22,11.453125 L22,16.296875 C22,16.3398438 21.9648438,16.375 21.921875,16.375 Z" id="形状"></path>
            </g>
        </g>
    </g>
</svg>
